X:1
T:Laus et perennis
T:Laus et perennis
T:Seth Calvisius
T:Source : Biciniorum---Leipzig---J.Apelio---1612. Editor : André Vierendeels (24/04/15).
T:Notes : Original clefs : G2, C3 Editorial accidentals above the staff 
C:Seth Calvisius
%%score [ 1 2 ]
L:1/8
Q:1/4=76
M:4/2
K:F
V:1 treble nm="Superius" snm="S"
V:2 treble-8 nm="Tenor" snm="T"
V:1
 d4 =B2 c2 defd g4 | d2 f3 edc d3 c BA B2- | BG c3 BAG A2 G4 ^F2 | G2 B2 G2 A2 B4 F2 f2 | %4
w: Laus et per- en- * * * *|nis glo- * * * * * * * *|* * * * * * * * ri-|a, laus et per- en- nis, laus|
 d2 e2 f4 g2 de fd g2 | f2 e4 d4 ^c2 d4 | z4 G4 =B4 c4 | G6 A2 =B4 c4 | G6 c2 B2 A2 G4 | %9
w: et per- en- nis glo- * * * *|* * * ri- a,|De- o Pa-|tri, De- o Pa-|tri et fi- li- o,|
 d4 ^f4 g4 d4- | d2 g4 f4 e2 d4 | z2 G2 B2 c2 G4 B4 | A2 G4 F2 G4 z2 d2 | %13
w: De- o Pa- tri|_ et fi- li- o,|De- o Pa- tri et|fi- * li- o, San-|
 c2 A2 d2 ^c2 d2 B2 A2 f2 | d2 e2 f2 d2 c2 B4 A2 | B2 d2 d3 c B2 A2 G2 ^F2 | %16
w: * cto si- mul Pa- ra- * cli-|to, Pa- ra- * * * cli-|to in se- cu- lo- rum se- cu-|
 G2 d2 d3 c B2 A2 d2 c2 | B2 f2 f3 e d2 g2 f2 _e2 | d2 g2 g3 f _edcB c2 G2 | A2 G4 ^F2 G4 z2 _e2 | %20
w: la, in se- cu- lo- rum se- cu-|la, in se- cu- lo- rum se- cu-|la,- in se- cu lo- * * * * rum|se- * cu- la, in|
 _e3 d c2 B2 c3 B AG A2- | A2 G4 ^F2 G8 |] %22
w: se- cu- lo- rum se- * * * *|* * cu- la.|
V:2
 z8 d4 =B2 c2 | d3 c de f2 d2 g3 f_ed | _e3 d cB c3 BBA/G/ A2 A2 | G4 z2 d2 G2 A2 Bcde | %4
w: Laus et per-|en- * * * * nis glo- * * *|* * * * * * * * * * ri-|a, laus et per- en- * * *|
 f4 d4 z2 g2 d2 e2 | f2 g2 f4 e4 d2 G2 | =B4 c4 G4 A4 | =B4 c4 G4 A4 | =B4 c4 d4 z2 g2 | %9
w: * nis, laus et per-|en- nis glo- ri- a, De-|o Pa- tri, De-|o Pa- tri, De-|o Pa- tri et|
 f2 e2 d4 z2 e2 ^f4 | g4 d6 g4 f2- | f2 e2 d2 A2 =B2 c2 d2 G2 | c3 B A2 A2 G2 g2 f2 d2 | %13
w: fi- li- o, De- o|Pa- tri et fi-|* li- o, De- o Pa- tri et|fi- * * li- o, San- * cto|
"^-natural" f3 f g2 _e2 d2 g2 f2 d2 | g4 d2 f3 e d2 c2 c2 | B6 d2 d3 c B2 A2 | %16
w: si- mul- Pa- ra- * * cli- to,|San- cta si- mul Pa- ra- cli-|to, in- se- cu- lo- rum|
 G2 ^F2 G2 d2 d3 c B2 A2 | Bcde f2 d2 g2 _e2 d2 g2 | g3 f _e2 d2 cBcd e3 d | c4 A4 G2 _e2 e3 d | %20
w: se- cu- la, in se- cu- lo- rum|se- * * * * * * cu- la, in|se- cu- lo- rum se- * * * * *|* cu- la, in se- cu-|
 c2 B2 _e3 d cBAG c3 d | B4 A4 G8 |] %22
w: lo- rum se- * * * * * * *|* cu- la.|

